icons/fill-new-media-vido-play-circle.svg

<svg xmlns="http://www.w3.org/2000/svg" width="32px" height="32px" viewBox="0 0 32 32" version="1.1">
    <title>fill-new-media-vido-play-circle</title>
    <g id="fill-new-media-vido-play-circle" stroke-width="1" fill-rule="evenodd">
        <path d="M16,2 C23.7319865,2 30,8.2680135 30,16 C30,23.7319865 23.7319865,30 16,30 C8.2680135,30 2,23.7319865 2,16 C2,8.2680135 8.2680135,2 16,2 Z M12.6615564,10.7976977 C12.5561197,10.959908 12.5,11.1492201 12.5,11.342686 L12.5,20.657314 C12.5,21.2095987 12.9477153,21.657314 13.5,21.657314 C13.6934659,21.657314 13.8827781,21.6011942 14.0449884,21.4957576 L21.2100867,16.8384436 C21.6731464,16.5374549 21.8045308,15.9180713 21.503542,15.4550116 C21.4273209,15.3377484 21.32735,15.2377775 21.2100867,15.1615564 L14.0449884,10.5042424 C13.5819287,10.2032537 12.9625451,10.3346381 12.6615564,10.7976977 Z" id="&#24418;&#29366;" />
    </g>
</svg>

<svg xmlns="http://www.w3.org/2000/svg" viewBox="0 0 32 32"><path fill="currentColor" d="M16 2c7.732 0 14 6.268 14 14s-6.268 14-14 14S2 23.732 2 16 8.268 2 16 2m-3.338 8.798a1 1 0 0 0-.162.545v9.314a1 1 0 0 0 1.545.839l7.165-4.658a1 1 0 0 0 0-1.676l-7.165-4.658a1 1 0 0 0-1.383.294"/></svg>
